cards-playing-heart-multiple-outline.svg

<svg fill="currentColor" viewBox="0 0 24 24"><path d="M19 0H9C7.9 0 7 .9 7 2v16c0 1.1.9 2 2 2h10c1.1 0 2-.9 2-2V2c0-1.1-.9-2-2-2m0 18H9V2h10zM3 4v18c0 1.1.9 2 2 2h12v-2H5V4zm9.2 3C11 7 10 8 10 9.2c0 1.5 1.4 2.7 3.4 4.6l.6.5.6-.5c2-1.9 3.4-3.1 3.4-4.6C18 7.9 17 7 15.8 7c-.7 0-1.4.3-1.8.8-.4-.5-1.1-.8-1.8-.8"/></svg>

<svg  viewBox="0 0 24 24" fill="currentColor"><path  d="M19 0H9C7.9 0 7 .9 7 2V18C7 19.1 7.9 20 9 20H19C20.1 20 21 19.1 21 18V2C21 .9 20.1 0 19 0M19 18H9V2H19V18M3 4V22C3 23.1 3.9 24 5 24H17V22H5V4H3M12.2 7C11 7 10 8 10 9.2C10 10.7 11.4 11.9 13.4 13.8L14 14.3L14.6 13.8C16.6 11.9 18 10.7 18 9.2C18 7.9 17 7 15.8 7C15.1 7 14.4 7.3 14 7.8C13.6 7.3 12.9 7 12.2 7Z"/></svg>
